X: 281
M: 2/4
L: 1/8
K: G
|:\
|:\
"2F"B>cdd | F>GAA | B,>CDD | G,2G,2 |\
[K:Gm]\
"2F"G>AGA | B>cBc | d>ede | !+!d2d2 |\
d>ede | f>gfg | fedc | B2B2 :|
|:\
"1F"d>edd | d=Bc2 | c>dcc | cAB2 |\
[K:G][M:3/4]\
z2dcBA | G2G2G2 | [A4F4]{Bc}B2 | cedcBA |\
!+!B2A4 | AGFGAB | cBABcd | edcBAG |\
!+!F4{E}D2 | GBd2d2 | d3cB2 | (3edcB2A2 | HG6 |]

